storage/app/icons/phosphoricons/light/tumblr-logo-light.svg

<svg xmlns="http://www.w3.org/2000/svg" fill="currentColor" viewBox="0 0 256 256"><path d="M192 118a6 6 0 0 0 6-6V72a6 6 0 0 0-6-6h-42V24a6 6 0 0 0-6-6h-32a6 6 0 0 0-6 6 42 42 0 0 1-42 42 6 6 0 0 0-6 6v40a6 6 0 0 0 6 6h26v58a62.07 62.07 0 0 0 62 62h40a6 6 0 0 0 6-6v-48a6 6 0 0 0-6-6h-32a10 10 0 0 1-10-10v-50Zm-32 72h26v36h-34a50.06 50.06 0 0 1-50-50v-64a6 6 0 0 0-6-6H70V77.67A54.12 54.12 0 0 0 117.67 30H138v42a6 6 0 0 0 6 6h42v28h-42a6 6 0 0 0-6 6v56a22 22 0 0 0 22 22"/></svg>

<svg xmlns="http://www.w3.org/2000/svg" viewBox="0 0 256 256" fill="currentColor"><path d="M192,118a6,6,0,0,0,6-6V72a6,6,0,0,0-6-6H150V24a6,6,0,0,0-6-6H112a6,6,0,0,0-6,6A42,42,0,0,1,64,66a6,6,0,0,0-6,6v40a6,6,0,0,0,6,6H90v58a62.07,62.07,0,0,0,62,62h40a6,6,0,0,0,6-6V184a6,6,0,0,0-6-6H160a10,10,0,0,1-10-10V118Zm-32,72h26v36H152a50.06,50.06,0,0,1-50-50V112a6,6,0,0,0-6-6H70V77.67A54.12,54.12,0,0,0,117.67,30H138V72a6,6,0,0,0,6,6h42v28H144a6,6,0,0,0-6,6v56A22,22,0,0,0,160,190Z"/></svg>
